X: 612
M:C
L:1/8
K:A
E !segno!| A2 (c/2B/2A) eA (c/2B/2A) | (eA)aA gAfA | A2 (c/2B/2A) eA (c/2B/2A) | BEdE cEBE |
E2 (G/2F/2E) BE (G/2F/2E) | BEdE cEBE | A2 (c/2B/2A) eA (c/2B/2A) | (eA)aA gAfA |
(e^d)ec (ag)af | e^dec (ag)af | ecag fedc | BAGF EFGE !segno!|]


